X: 2
T: Rakes of Clonmel
I: Rakes of Clonmel	J-29	Am	jig
M: 6/8
R: jig
K: Am
e/d/| "Am"cBA "G"BGE| "Am"EAA A2B| c>Bc A>Bc| "G"BGG G2e/^f/|       "C"g>fg ege| "G"dBG Bcd| "Am"ecA "G"dBG| "Am"EAA A2:|
a| "Am"a^ga A2a| edA A2g| "G"g^fg G2g| dBG G2B|    "C"cBc C2c| "Dm"dcd D2d| "Am"edc "G"Bcd| "Am"ecA A2a|
   "Am"aea aed| cBc A2g| "G"gdg gdc| BAB G2A/B/|    "C"cBc C2c| "Dm"dcd D2d| "Am"edc "G"Bcd| "Am"ecA A2|]
%%text Roaring Jelly  J-29

